imgs/zeta-circle-green.svg

<svg width="320" height="320" viewBox="0 0 320 320" fill="none" xmlns="http://www.w3.org/2000/svg">
<rect width="320" height="320" rx="160" fill="#5AD769"/>
<path d="M181.785 81.6144C185.579 76.5046 191.631 73.4597 198.078 73.4169L223.126 73.2504C239.696 73.1403 249.288 91.4886 239.521 104.613L139.659 238.803C135.834 243.942 129.728 246.985 123.24 246.985L98.5246 246.985C82.027 246.985 72.5443 228.714 82.2551 215.638L181.785 81.6144Z" fill="white"/>
<path d="M97.0332 82.1903C100.856 77.0371 106.971 73.9838 113.471 73.9838L138.469 73.9839C154.982 73.9839 164.461 92.2841 154.719 105.357L128.913 139.987C125.088 145.119 118.985 148.158 112.502 148.158L87.6204 148.158C71.1276 148.158 61.6437 129.897 71.3445 116.82L97.0332 82.1903Z" fill="white"/>
<path d="M191.886 181.197C195.709 176.044 201.824 172.99 208.323 172.99L233.322 172.99C249.835 172.991 259.313 191.291 249.572 204.363L223.766 238.993C219.941 244.126 213.838 247.165 207.355 247.165L182.473 247.165C165.981 247.165 156.497 228.904 166.197 215.827L191.886 181.197Z" fill="white"/>
</svg>

<svg xmlns="http://www.w3.org/2000/svg" width="320" height="320" fill="none"><rect width="320" height="320" fill="#5AD769" rx="160"/><path fill="#fff" d="M181.785 81.614c3.794-5.11 9.846-8.154 16.293-8.197l25.048-.167c16.57-.11 26.162 18.239 16.395 31.363l-99.862 134.19c-3.825 5.139-9.931 8.182-16.419 8.182H98.525c-16.498 0-25.98-18.271-16.27-31.347zm-84.752.576c3.823-5.153 9.938-8.206 16.438-8.206h24.998c16.513 0 25.992 18.3 16.25 31.373l-25.806 34.63c-3.825 5.132-9.928 8.171-16.411 8.171H87.62c-16.492 0-25.976-18.261-16.276-31.338zm94.853 99.007c3.823-5.153 9.938-8.207 16.437-8.207h24.999c16.513.001 25.991 18.301 16.25 31.373l-25.806 34.63c-3.825 5.133-9.928 8.172-16.411 8.172h-24.882c-16.492 0-25.976-18.261-16.276-31.338z"/></svg>
